
Udef(\rainHF, {
	URandSeed.ir();
	UOut.ar(0,tanh(
            3 * GVerb.ar(
                HPF.ar(
                    PinkNoise.ar(0.08+LFNoise1.kr(0.3,0.02))+LPF.ar(Dust2.ar(LFNoise1.kr(0.2).range(40,50)),7000),
                    400
                ),
                250,100,0.25,drylevel:0.3
            ) 
        )) 
})
.category_(\synthesis)