

// SuperCollider

MIDIClient.init;

/*
if ( thisProcess.platform.name == \linux /*thisProcess.platform.isKindOf(LinuxPlatform)*/ );

if ( thisProcess.platform.name == \linux /*thisProcess.platform.isKindOf(LinuxPlatform)*/ );
*/



MIDIClient.init;