

// SuperCollider

MIDIClient.init;

/* The whole text should be formatted even with nested comments...

if ( thisProcess.platform.name == \linux /*thisProcess.platform.isKindOf(LinuxPlatform)*/ );

if ( thisProcess.platform.name == \linux /*thisProcess.platform.isKindOf(LinuxPlatform)*/ );


MIDIClient.init;

*/

